src/images/trading_app/header/statement/ic-statement-normal-light.svg

<?xml version="1.0" encoding="UTF-8"?>
<svg width="16px" height="16px" viewBox="0 0 16 16" version="1.1" xmlns="http://www.w3.org/2000/svg" xmlns:xlink="http://www.w3.org/1999/xlink">
    <!-- Generator: Sketch 49 (51002) - http://www.bohemiancoding.com/sketch -->
    <title>icons/system/binary/header/statement/ic-statement-normal-light</title>
    <desc>Created with Sketch.</desc>
    <defs></defs>
    <g id="icons/system/binary/header/statement/ic-statement-normal-light" stroke="none" stroke-width="1" fill="none" fill-rule="evenodd">
        <g id="icons/normal/statement">
            <g id="rec-statement-body" stroke="#2A3052">
                <path d="M12.5,15.5 L12.5,4.20722798 L8.78970286,0.5 L1,0.5 C0.723857625,0.5 0.5,0.723857625 0.5,1 L0.5,15 C0.5,15.2761424 0.723857625,15.5 1,15.5 L12.5,15.5 Z" id="rec-statement-1"></path>
                <path d="M12.5,6.5 L12.5,15.5 L14,15.5 C14.8284271,15.5 15.5,14.8284271 15.5,14 L15.5,7 C15.5,6.72385763 15.2761424,6.5 15,6.5 L12.5,6.5 Z" id="rec-statement-2"></path>
            </g>
            <path d="M3.5,5 L9.5,5 C9.77614237,5 10,5.22385763 10,5.5 C10,5.77614237 9.77614237,6 9.5,6 L3.5,6 C3.22385763,6 3,5.77614237 3,5.5 C3,5.22385763 3.22385763,5 3.5,5 Z M3.5,7 L9.5,7 C9.77614237,7 10,7.22385763 10,7.5 C10,7.77614237 9.77614237,8 9.5,8 L3.5,8 C3.22385763,8 3,7.77614237 3,7.5 C3,7.22385763 3.22385763,7 3.5,7 Z M3.5,9 L9.5,9 C9.77614237,9 10,9.22385763 10,9.5 C10,9.77614237 9.77614237,10 9.5,10 L3.5,10 C3.22385763,10 3,9.77614237 3,9.5 C3,9.22385763 3.22385763,9 3.5,9 Z M3.5,11 L6.5,11 C6.77614237,11 7,11.2238576 7,11.5 C7,11.7761424 6.77614237,12 6.5,12 L3.5,12 C3.22385763,12 3,11.7761424 3,11.5 C3,11.2238576 3.22385763,11 3.5,11 Z" id="rec-statement-content" fill="#2A3052"></path>
        </g>
    </g>
</svg>

<svg width="16" height="16" viewBox="0 0 16 16" xmlns="http://www.w3.org/2000/svg"><title>icons/system/binary/header/statement/ic-statement-normal-light</title><g fill="none" fill-rule="evenodd"><g stroke="#2A3052"><path d="M12.5 15.5V4.207L8.79.5H1a.5.5 0 0 0-.5.5v14a.5.5 0 0 0 .5.5h11.5zM12.5 6.5v9H14a1.5 1.5 0 0 0 1.5-1.5V7a.5.5 0 0 0-.5-.5h-2.5z"/></g><path d="M3.5 5h6a.5.5 0 0 1 0 1h-6a.5.5 0 0 1 0-1zm0 2h6a.5.5 0 0 1 0 1h-6a.5.5 0 0 1 0-1zm0 2h6a.5.5 0 0 1 0 1h-6a.5.5 0 0 1 0-1zm0 2h3a.5.5 0 1 1 0 1h-3a.5.5 0 1 1 0-1z" fill="#2A3052"/></g></svg>
